X: 132
T: Missa Sub tuum presidium / Kyrie
N: Derived from Rue1029a-Missa_Sub_tuum_presidium-Kyrie.krn
C: Pierre de la Rue
%%abc-version 2.0
%%abcx-abcm2ps-target-version 5.9.1 (29 Sep 2008)
%%abc-creator hum2abc beta
%%abcx-conversion-date 2019/02/17 08:01:15
%%abc-edited-by Jesse Rodin
%%abc-edited-by Will Watson 02/09/2011
%%abcx-initial-encoding-date 2012/01/21/
%%humdrum-veritas 4067641248
%%humdrum-veritas-data 2906149040
%%linebreak <none>
%%barnumbers 0
L: 1/4
M: 3/1
Q: 1/2=120
%%staves [1 2 3 4]
V: 1 clef=treble
V: 2 clef=treble-8
V: 3 clef=treble-8
V: 4 clef=bass
K: C
[V:1] E4G2A2B4 | 
[V:2] e6c2d2e2- | 
[V:3] z12 | 
[V:4] z12 | 
[V:1] E4z4z2E2 | 
[V:2] e2A2c2d2e4- | 
[V:3] z12 | 
[V:4] z12 | 
[V:1] G2A2B4A2c2- | 
[V:2] e2c2d2e2A4 | 
[V:3] z12 | 
[V:4] z12 | 
[V:1] cBA2G2A3GF2 | 
[V:2] c2d2e2f3ed2 | 
[V:3] z12 | 
[V:4] z12 | 
[V:1] E2D4G4^F2 | 
[V:2] c2d3cB2A4 | 
[V:3] z12 | 
[V:4] z12 | 
[V:1] G4z2G2F2E2- | 
[V:2] G8z2g2- | 
[V:3] z12 | 
[V:4] z12 | 
[V:1] EDD2z2G2F2E2- | 
[V:2] g2f2e3dd2g2- | 
[V:3] z12 | 
[V:4] z12 | 
[V:1] EDd2c2B3Ad2 | 
[V:2] g2f2e3dg2f2 | 
[V:3] z12 | 
[V:4] z12 | 
[V:1] c2B3AA4d2 | 
[V:2] edg2f2e3dd2 | 
[V:3] z12 | 
[V:4] z4A,,4C,2D,2 | 
[V:1] c2B3AA4^G2 | 
[V:2] z2G2B2cde4 | 
[V:3] E4G2A2B4 | 
[V:4] E,12 | 
[V:1] A8z4 | 
[V:2] c4z4z4 | 
[V:3] A8z2E2 | 
[V:4] A,,4C,2D,2E,4- | 
[V:1] z12 | 
[V:2] z4z4e4- | 
[V:3] G2A2B4A2c2- | 
[V:4] E,2C,2D,2E,2A,,4 | 
[V:1] z4E4G2A2 | 
[V:2] e2dcB2e4c2 | 
[V:3] cBA2G4z4 | 
[V:4] C,2D,2E,4z4 | 
[V:1] B4A2c3BA2 | 
[V:2] d2e2A8 | 
[V:3] z2G2F2E3DD2 | 
[V:4] z4A,,4C,2D,2 | 
[V:1] G8z2G2 | 
[V:2] c2BGB2c2d2e2 | 
[V:3] z2G3EG2F2E2- | 
[V:4] E,8z2G,2 | 
[V:1] A2G2B3cA2G2 | 
[V:2] z2e2B2e2A2B2- | 
[V:3] EDG2F2E3DG2- | 
[V:4] F,2E,3D,G,2F,2E,2- | 
[V:1] B3dc2BGA2GE | 
[V:2] Bcd2G4z2B2 | 
[V:3] G2F2E3DD2G2- | 
[V:4] E,D,D,2z2G,2F,2E,2- | 
[V:1] F4E2E4D2 | 
[V:2] c2d2B2c2A3B | 
[V:3] GFD2E4F4 | 
[V:4] E,D,D,4C,2D,4 | 
[V:1] E12- | 
[V:2] cdedcBB4A2 | 
[V:3] E12- | 
[V:4] z2A,,3G,,G,,2A,,4 | 
[V:1] E12 ||  
[V:2] B12 ||  
[V:3] E12 ||  
[V:4] E,,12 & E,12 ||  
[V:1]  [K:C] [K:clef=treble][M:2/1]z8 | 
[V:2]  [K:C] [K:clef=treble-8][M:2/1]z8 | 
[V:3]  [K:C] [K:clef=treble-8][M:2/1]B4c4 | 
[V:4]  [K:C] [K:clef=bass][M:2/1]E,8 | 
[V:1] z8 | 
[V:2] z8 | 
[V:3] B2G2A2F2 | 
[V:4] E,4F,4 | 
[V:1] z8 | 
[V:2] z8 | 
[V:3] G2E2F2D2 | 
[V:4] E,2C,2D,2B,,2 | 
[V:1] z8 | 
[V:2] z8 | 
[V:3] E4B4 | 
[V:4] C,2A,,2B,,2G,,2 | 
[V:1] z8 | 
[V:2] z8 | 
[V:3] c4B2G2 | 
[V:4] A,,4E,4 | 
[V:1] z8 | 
[V:2] z8 | 
[V:3] A4G2c2 | 
[V:4] F,4E,2C,2 | 
[V:1] z8 | 
[V:2] z8 | 
[V:3] B2A4GF | 
[V:4] D,4C,4- | 
[V:1] z8 | 
[V:2] e8- | 
[V:3] E2G3FED | 
[V:4] C,4C,4 | 
[V:1] z4B4 | 
[V:2] e8 | 
[V:3] C4z4 | 
[V:4] C,2E,3D,C,B,, | 
[V:1] c4B2G2 | 
[V:2] e8 | 
[V:3] z8 | 
[V:4] A,,4z4 | 
[V:1] A2F2G2E2 | 
[V:2] f4e2c2 | 
[V:3] z8 | 
[V:4] z8 | 
[V:1] F2D2E4 | 
[V:2] d2B2c2A2 | 
[V:3] z8 | 
[V:4] z8 | 
[V:1] B4c4 | 
[V:2] B2G2A4 | 
[V:3] z8 | 
[V:4] z8 | 
[V:1] B2G2A4 | 
[V:2] e4f4 | 
[V:3] z8 | 
[V:4] z2E,4D,2 | 
[V:1] G2c2B2A2- | 
[V:2] e2c2d4 | 
[V:3] z8 | 
[V:4] E,2A,2G,2F,2- | 
[V:1] A2GFE2G2- | 
[V:2] c8 | 
[V:3] z8 | 
[V:4] F,2E,D,C,4 | 
[V:1] GFEDC4 | 
[V:2] d3ef2e2- | 
[V:3] G4A4 | 
[V:4] B,,4A,,4- | 
[V:1] z4G4 | 
[V:2] e2dcd4 | 
[V:3] c4B4 | 
[V:4] A,,4z4 | 
[V:1] A4c4 | 
[V:2] c8 | 
[V:3] A8 | 
[V:4] z8 | 
[V:1] B4A4- | 
[V:2] G4z2E2- | 
[V:3] d4c3B | 
[V:4] G,,4A,,4 | 
[V:1] A4d4 | 
[V:2] E2F2D2d2 | 
[V:3] BAA4G2 | 
[V:4] C,2D,2B,,4 | 
[V:1] c3BBAA2- | 
[V:2] f2e3dcA | 
[V:3] A8 | 
[V:4] A,,8 | 
[V:1] A2^G2A4 | 
[V:2] B4A4 | 
[V:3] E4z2E2 | 
[V:4] z4A,,4 | 
[V:1] z8 | 
[V:2] z2G2A2F2 | 
[V:3] F2D2E2C2 | 
[V:4] z2B,,2C,2A,,2 | 
[V:1] z2B2c2A2 | 
[V:2] G2G4^F2 | 
[V:3] D4C4 | 
[V:4] B,,2G,,2A,,4 | 
[V:1] B2G2A4 | 
[V:2] G4z2d2 | 
[V:3] z2E2F2D2 | 
[V:4] G,,4z4 | 
[V:1] G4z4 | 
[V:2] B2c2A2B2- | 
[V:3] E2G2F4 | 
[V:4] z2C,2D,2B,,2 | 
[V:1] z4z2B2 | 
[V:2] BAA4^G2 | 
[V:3] E2E4D2 | 
[V:4] C,2A,,2B,,4 | 
[V:1] c2A2B2G2 | 
[V:2] A2c2d2e2- | 
[V:3] E2A2G2E2 | 
[V:4] A,,4z4 | 
[V:1] A4G4 | 
[V:2] ecd2B2cB | 
[V:3] F4E4 | 
[V:4] z2D,2E,2C,2 | 
[V:1] z2B2c2A2 | 
[V:2] AGG4^F2 | 
[V:3] z8 | 
[V:4] D,2G,,2A,,4 | 
[V:1] B2G4^F2 | 
[V:2] G4z4 | 
[V:3] z2B2c2A2 | 
[V:4] G,,4z4 | 
[V:1] G2B2c2A2 | 
[V:2] z8 | 
[V:3] B2G4^F2 | 
[V:4] G,,4A,,4 | 
[V:1] B2G2A4 | 
[V:2] d4e2f2 | 
[V:3] G2B2c2A2 | 
[V:4] G,,2G,4^F,2 | 
[V:1] G2B2c2A2 | 
[V:2] d2e4dc | 
[V:3] B2G4^F2 | 
[V:4] G,2G,,2A,,4 | 
[V:1] B2G2d4- | 
[V:2] B3GBcde | 
[V:3] G8 | 
[V:4] G,,2C,2B,,2G,,2 | 
[V:1] d2cBA3G | 
[V:2] f2g4^f2 | 
[V:3] A8 | 
[V:4] D,8 | 
[V:1] B8 ||  
[V:2] g8 ||  
[V:3] G8 ||  
[V:4] G,,8 ||  
[V:1]  [K:C] [M:2/1][M:3/1]z12 | 
[V:2]  [K:C] [M:2/1][M:3/1]z12 | 
[V:3]  [K:C] [M:2/1][M:3/1]z4z4D4 | 
[V:4]  [K:C] [M:2/1][M:3/1]z12 | 
[V:1] z4z4D4 | 
[V:2] z12 | 
[V:3] G6E2F2G2 | 
[V:4] z12 | 
[V:1] G6E2F2G2 | 
[V:2] z12 | 
[V:3] E3FG2A4G2 | 
[V:4] z12 | 
[V:1] E3FG2A4^G2 | 
[V:2] A4d6B2 | 
[V:3] A2c2B3AB4 | 
[V:4] z12 | 
[V:1] A4z2D2G3F | 
[V:2] c2d2B3cd2e2- | 
[V:3] A2D2G3FEDC2- | 
[V:4] z12 | 
[V:1] EDF4E3DD2 | 
[V:2] e2d2cBB4A2 | 
[V:3] C2D2E3F/G/F4 | 
[V:4] z4z4D,4 | 
[V:1] E4z4z4 | 
[V:2] B3cd2e4d2 | 
[V:3] E4z4z4 | 
[V:4] G,6E,2F,2G,2 | 
[V:1] z12 | 
[V:2] e2c4BAB4 | 
[V:3] z12 | 
[V:4] E,3F,G,2A,4^G,2 | 
[V:1] z12 | 
[V:2] z2A2d6B2 | 
[V:3] z12 | 
[V:4] A,4z2D,2G,4 | 
[V:1] z12 | 
[V:2] c3dB4E2A2- | 
[V:3] z12 | 
[V:4] E,2F,2G,2E,4A,,2 | 
[V:1] z4z4A4 | 
[V:2] A4F2G2A2F2 | 
[V:3] z12 | 
[V:4] D,6B,,2C,3D, | 
[V:1] d6B2c3d | 
[V:2] D4G2G4^F2 | 
[V:3] z4z4A4 | 
[V:4] B,,2G,,4B,,2A,,4 | 
[V:1] B2G4B2A4 | 
[V:2] G4z4z4 | 
[V:3] d6B2c3d | 
[V:4] G,,4G,2G,4^F,2 | 
[V:1] G3FEDG4^F2 | 
[V:2] d8d4 | 
[V:3] B2G4B2A4 | 
[V:4] G,4z4D,4 | 
[V:1] G8z2D2 | 
[V:2] B3cd2e4d2 | 
[V:3] G8z4 | 
[V:4] G,6E,2F,2G,2 | 
[V:1] G6E2F2G2 | 
[V:2] e4B2e2d2B2 | 
[V:3] z4z4z2G2 | 
[V:4] C,2E,4C,2D,2E,2 | 
[V:1] E4A2A4G2 | 
[V:2] c2A3GF2E4 | 
[V:3] c6A2B2c2 | 
[V:4] A,,8z2C,2 | 
[V:1] A6c3BAG | 
[V:2] z4z2A3Bc2 | 
[V:3] A8z2A2 | 
[V:4] F,12 | 
[V:1] (3F2G2A2D2G4F2 | 
[V:2] A2d3GG2z2A2 | 
[V:3] d6B2c2d2 | 
[V:4] z2D,2G,3B,A,2D,2 | 
[V:1] G2D2G2F2EE2D | 
[V:2] G2B3cd2BB2A | 
[V:3] B2G4D2G2F2 | 
[V:4] G,4z4z2D,2 | 
[V:1] E2G3FE4D2 | 
[V:2] B6G2A4 | 
[V:3] G2E4G2F4 | 
[V:4] G,8D,4 | 
[V:1] E12 |]  
[V:2] B12 |]  
[V:3] E12 |]  
[V:4] G,12 |]  



